X: 20360
T: John Cass' 90th Birthday
R: jig
M: 6/8
K: Amajor
|:E|"A"A,>CE "C#/A"ABc|"D/Bm"B2F "Bm7"F>BA|"E"G>FE "G#/E7"E>FG|"A"A>cf "B/E7"e2E|
"C#/A"A,>CE "A"ABc|"D/Bm"B2F "D#/B7"F>BA|"E"G>FE "E7"dcB|"A"A3A2:|
|:e|"A"a2e "C#/A"ABc|"D/Bm"B2F "Bm7"F>BA|"E7"G2e "G#/E7"e>dB|"A"Ae "E7"e>fg|
"F#m"a2e "E/A"cBA|"D/Bm"F2D "Bm7"D2F|"E/A"E2e "E7"dcB|"A"A3A2:|

